brandFactory_export/1.Light/Flecha Abajo Izquierda_1Light.svg

<?xml version="1.0" encoding="UTF-8"?>
<svg width="24px" height="24px" viewBox="0 0 24 24" version="1.1" xmlns="http://www.w3.org/2000/svg" xmlns:xlink="http://www.w3.org/1999/xlink">
    <title>1.Light/Flecha Abajo Izquierda_1Light</title>
    <g id="Symbols" stroke="none" stroke-width="1" fill="none" fill-rule="evenodd">
        <g id="1.Light/Flecha-Abajo-Izquierda_1Light" fill="#5CB615" fill-rule="nonzero">
            <path d="M2.79327731,22.3663866 C2.57142857,22.3663866 2.37310924,22.2890756 2.22857143,22.1445378 C2.06722689,21.9831933 1.98991597,21.7512605 2.01008403,21.4991597 L2.01680672,6.29915966 C2.01344538,5.89915966 2.21848739,5.57647059 2.58487395,5.41512605 C3.03193277,5.21680672 3.6302521,5.30756303 3.97647059,5.62689076 L3.98655462,5.63697479 L7.06218487,8.71260504 C7.10588235,8.75630252 7.16302521,8.76302521 7.19327731,8.76302521 C7.25378151,8.75966387 7.31092437,8.73613445 7.35462185,8.68907563 L13.4655462,2.60168067 C13.8554622,2.21176471 14.2621849,2.01344538 14.6722689,2.0200027 C15.0789916,2.02689076 15.4722689,2.22184874 15.8689076,2.62184874 L21.9361345,8.68235294 L21.9462185,8.69243697 C22.7663866,9.58655462 22.0840336,10.2756303 21.7579832,10.605042 L21.7546218,10.6084034 L15.4689076,16.810084 C15.3848739,16.8941176 15.3714286,17.0285714 15.4487395,17.102521 L18.7764706,20.4302521 L18.7831933,20.4369748 C19.0857143,20.7529412 19.1731092,21.3142857 18.9882353,21.7445378 C18.8168067,22.1411765 18.4571429,22.3663866 17.9966387,22.3663866 L2.87731092,22.3663866 C2.85042017,22.3630252 2.82016807,22.3663866 2.79327731,22.3663866 Z M3.10588235,5.97647059 C3.01848739,5.97647059 2.93109244,5.99327731 2.8605042,6.02352941 C2.7092437,6.0907563 2.68907563,6.20168067 2.68907563,6.28907563 L2.68907563,6.29243697 L2.68235294,21.5092437 C2.68235294,21.5193277 2.68235294,21.5327731 2.6789916,21.5428571 C2.67226891,21.6 2.68235294,21.6436975 2.70252101,21.6638655 C2.72268908,21.6840336 2.7697479,21.6941176 2.82352941,21.687395 C2.83361345,21.687395 2.84705882,21.6840336 2.85714286,21.6840336 L17.9932773,21.6840336 C18.1882353,21.6840336 18.3058824,21.6168067 18.3697479,21.4689076 C18.4571429,21.2672269 18.4,21.005042 18.2957983,20.8941176 L14.9714286,17.5697479 C14.8067227,17.405042 14.7193277,17.1798319 14.7260504,16.9411765 C14.7327731,16.7092437 14.8268908,16.4907563 14.994958,16.3260504 L21.2806723,10.1243697 C21.7647059,9.63697479 21.7546218,9.47563025 21.4554622,9.14621849 L15.4016807,3.09579832 C15.1361345,2.8302521 14.8907563,2.69579832 14.6689076,2.69237066 C14.4436975,2.68907563 14.2084034,2.81344538 13.9462185,3.07563025 L7.83529412,9.16302521 C7.67058824,9.32773109 7.4487395,9.42521008 7.22016807,9.43193277 C6.98151261,9.43865546 6.75966387,9.3512605 6.59159664,9.18655462 L3.51932773,6.11428571 C3.42184874,6.02689076 3.26386555,5.97647059 3.10588235,5.97647059 Z" id="Flecha-Abajo-Izquierda_1Light"></path>
        </g>
    </g>
</svg>

<svg width="24" height="24" viewBox="0 0 24 24" xmlns="http://www.w3.org/2000/svg"><path d="M2.793 22.366a.784.784 0 01-.564-.221.807.807 0 01-.219-.646l.007-15.2a.919.919 0 01.568-.884c.447-.198 1.045-.107 1.391.212l.01.01 3.076 3.076c.044.043.101.05.131.05a.233.233 0 00.162-.074l6.11-6.087c.39-.39.797-.589 1.207-.582.407.007.8.202 1.197.602l6.067 6.06.01.01c.82.895.138 1.584-.188 1.913l-.003.003-6.286 6.202c-.084.084-.098.219-.02.293l3.327 3.327.007.007c.303.316.39.877.205 1.308-.171.396-.53.621-.991.621H2.877c-.027-.003-.057 0-.084 0zm.313-16.39a.638.638 0 00-.245.048c-.152.067-.172.178-.172.265v.003L2.682 21.51c0 .01 0 .024-.003.034-.007.057.003.1.024.12.02.021.067.031.12.024l.034-.003h15.136c.195 0 .313-.067.377-.215.087-.202.03-.464-.074-.575L14.97 17.57a.848.848 0 01-.245-.629c.007-.232.1-.45.269-.615l6.286-6.202c.484-.487.474-.648.174-.978l-6.053-6.05c-.266-.266-.511-.4-.733-.404-.225-.003-.46.121-.723.384l-6.11 6.087a.914.914 0 01-.616.269.854.854 0 01-.628-.245L3.519 6.114a.638.638 0 00-.413-.138z" fill="#5CB615" fill-rule="nonzero"/></svg>
